icons/modern/telephone-receiver.svg

<svg width="32" height="32" viewBox="0 0 32 32" fill="none" xmlns="http://www.w3.org/2000/svg">
<g filter="url(#filter0_i_18_19175)">
<path d="M2.55078 6.64233C2.55078 4.86108 3.4336 3.23608 4.13672 2.6814L12.8711 11.2439C12.4961 11.7439 11.6758 12.2751 10.6992 12.7283C10.1602 13.0564 9.61328 13.6892 10.0273 14.7517C12.4023 18.8533 16.418 21.6814 17.4492 21.9001C18.1923 22.0578 18.832 21.7595 19.2617 20.697C19.7383 19.7439 20.293 19.072 20.6211 18.7751L29.4492 27.533C28.9284 28.2205 27.5117 29.4548 24.8867 29.3064C19.6836 29.197 13.3711 27.4158 8.29297 21.9001C2.91797 15.8376 2.55078 8.89233 2.55078 6.64233Z" fill="url(#paint0_linear_18_19175)"/>
<path d="M2.55078 6.64233C2.55078 4.86108 3.4336 3.23608 4.13672 2.6814L12.8711 11.2439C12.4961 11.7439 11.6758 12.2751 10.6992 12.7283C10.1602 13.0564 9.61328 13.6892 10.0273 14.7517C12.4023 18.8533 16.418 21.6814 17.4492 21.9001C18.1923 22.0578 18.832 21.7595 19.2617 20.697C19.7383 19.7439 20.293 19.072 20.6211 18.7751L29.4492 27.533C28.9284 28.2205 27.5117 29.4548 24.8867 29.3064C19.6836 29.197 13.3711 27.4158 8.29297 21.9001C2.91797 15.8376 2.55078 8.89233 2.55078 6.64233Z" fill="url(#paint1_radial_18_19175)"/>
</g>
<g filter="url(#filter1_f_18_19175)">
<path d="M4.47719 3.1862C4.50405 3.16217 4.53072 3.13969 4.5571 3.1189L12.543 10.9449C11.6516 11.5103 10.5943 11.8376 9.46057 11.8376C6.27866 11.8376 3.69922 9.25909 3.69922 6.07828C3.69922 5.02414 3.98253 4.03614 4.47719 3.1862Z" fill="url(#paint2_radial_18_19175)"/>
</g>
<g filter="url(#filter2_f_18_19175)">
<path d="M20.8086 19.7126C20.9424 19.552 21.0637 19.4249 21.1631 19.3342L29.1992 27.3902C29.174 27.4237 29.1466 27.4586 29.1169 27.4946C28.0968 28.3063 26.8085 28.7908 25.4078 28.7908C22.0997 28.7908 19.418 26.0883 19.418 22.7546C19.418 21.5013 20.1597 20.6775 20.8086 19.7126Z" fill="url(#paint3_radial_18_19175)"/>
<path d="M20.8086 19.7126C20.9424 19.552 21.0637 19.4249 21.1631 19.3342L29.1992 27.3902C29.174 27.4237 29.1466 27.4586 29.1169 27.4946C28.0968 28.3063 26.8085 28.7908 25.4078 28.7908C22.0997 28.7908 19.418 26.0883 19.418 22.7546C19.418 21.5013 20.1597 20.6775 20.8086 19.7126Z" fill="url(#paint4_radial_18_19175)"/>
<path d="M20.8086 19.7126C20.9424 19.552 21.0637 19.4249 21.1631 19.3342L29.1992 27.3902C29.174 27.4237 29.1466 27.4586 29.1169 27.4946C28.0968 28.3063 26.8085 28.7908 25.4078 28.7908C22.0997 28.7908 19.418 26.0883 19.418 22.7546C19.418 21.5013 20.1597 20.6775 20.8086 19.7126Z" fill="url(#paint5_radial_18_19175)"/>
</g>
<g filter="url(#filter3_i_18_19175)">
<path d="M4.53206 2.02038C5.21548 1.33696 6.32351 1.33696 7.00693 2.02038L13.4696 8.483C14.153 9.16642 14.153 10.2745 13.4696 10.9579L12.9898 11.4376C12.8336 11.5938 12.5804 11.5938 12.4242 11.4376L4.05234 3.06578C3.89613 2.90957 3.89613 2.65631 4.05234 2.5001L4.53206 2.02038Z" fill="url(#paint6_radial_18_19175)"/>
<path d="M4.53206 2.02038C5.21548 1.33696 6.32351 1.33696 7.00693 2.02038L13.4696 8.483C14.153 9.16642 14.153 10.2745 13.4696 10.9579L12.9898 11.4376C12.8336 11.5938 12.5804 11.5938 12.4242 11.4376L4.05234 3.06578C3.89613 2.90957 3.89613 2.65631 4.05234 2.5001L4.53206 2.02038Z" fill="url(#paint7_radial_18_19175)"/>
<path d="M4.53206 2.02038C5.21548 1.33696 6.32351 1.33696 7.00693 2.02038L13.4696 8.483C14.153 9.16642 14.153 10.2745 13.4696 10.9579L12.9898 11.4376C12.8336 11.5938 12.5804 11.5938 12.4242 11.4376L4.05234 3.06578C3.89613 2.90957 3.89613 2.65631 4.05234 2.5001L4.53206 2.02038Z" fill="url(#paint8_radial_18_19175)"/>
</g>
<g filter="url(#filter4_i_18_19175)">
<path d="M20.8415 18.369C21.5249 17.6855 22.556 17.7208 23.3164 18.369C24.2695 19.1814 29.2383 24.1501 29.8679 24.9203C30.4976 25.6904 30.5513 26.7117 29.8679 27.3952L29.3882 27.8749C29.232 28.0311 28.9787 28.0311 28.8225 27.8749L20.3618 19.4144C20.2056 19.2581 20.2056 19.0049 20.3618 18.8487L20.8415 18.369Z" fill="url(#paint9_radial_18_19175)"/>
<path d="M20.8415 18.369C21.5249 17.6855 22.556 17.7208 23.3164 18.369C24.2695 19.1814 29.2383 24.1501 29.8679 24.9203C30.4976 25.6904 30.5513 26.7117 29.8679 27.3952L29.3882 27.8749C29.232 28.0311 28.9787 28.0311 28.8225 27.8749L20.3618 19.4144C20.2056 19.2581 20.2056 19.0049 20.3618 18.8487L20.8415 18.369Z" fill="url(#paint10_radial_18_19175)"/>
</g>
<g filter="url(#filter5_f_18_19175)">
<path d="M10.7305 20.3298C7.5416 17.3257 6.86589 14.4757 6.48047 13.1423H8.57422C8.55339 13.559 9.31182 16.2245 11.2305 18.2361C15.2617 22.4626 18.3867 23.9731 19.7617 24.4626C18.2617 24.3376 15.4492 24.7751 10.7305 20.3298Z" fill="url(#paint11_linear_18_19175)"/>
</g>
<defs>
<filter id="filter0_i_18_19175" x="2.55078" y="2.6814" width="27.8984" height="26.6372" filterUnits="userSpaceOnUse" color-interpolation-filters="sRGB">
<feFlood flood-opacity="0" result="BackgroundImageFix"/>
<feBlend mode="normal" in="SourceGraphic" in2="BackgroundImageFix" result="shape"/>
<feColorMatrix in="SourceAlpha" type="matrix" values="0 0 0 0 0 0 0 0 0 0 0 0 0 0 0 0 0 0 127 0" result="hardAlpha"/>
<feOffset dx="1"/>
<feGaussianBlur stdDeviation="1"/>
<feComposite in2="hardAlpha" operator="arithmetic" k2="-1" k3="1"/>
<feColorMatrix type="matrix" values="0 0 0 0 0.827451 0 0 0 0 0.317647 0 0 0 0 0.313726 0 0 0 1 0"/>
<feBlend mode="normal" in2="shape" result="effect1_innerShadow_18_19175"/>
</filter>
<filter id="filter1_f_18_19175" x="2.69922" y="2.1189" width="10.8438" height="10.7188" filterUnits="userSpaceOnUse" color-interpolation-filters="sRGB">
<feFlood flood-opacity="0" result="BackgroundImageFix"/>
<feBlend mode="normal" in="SourceGraphic" in2="BackgroundImageFix" result="shape"/>
<feGaussianBlur stdDeviation="0.5" result="effect1_foregroundBlur_18_19175"/>
</filter>
<filter id="filter2_f_18_19175" x="18.418" y="18.3342" width="11.7812" height="11.4565" filterUnits="userSpaceOnUse" color-interpolation-filters="sRGB">
<feFlood flood-opacity="0" result="BackgroundImageFix"/>
<feBlend mode="normal" in="SourceGraphic" in2="BackgroundImageFix" result="shape"/>
<feGaussianBlur stdDeviation="0.5" result="effect1_foregroundBlur_18_19175"/>
</filter>
<filter id="filter3_i_18_19175" x="3.93518" y="1.35781" width="10.197" height="10.197" filterUnits="userSpaceOnUse" color-interpolation-filters="sRGB">
<feFlood flood-opacity="0" result="BackgroundImageFix"/>
<feBlend mode="normal" in="SourceGraphic" in2="BackgroundImageFix" result="shape"/>
<feColorMatrix in="SourceAlpha" type="matrix" values="0 0 0 0 0 0 0 0 0 0 0 0 0 0 0 0 0 0 127 0" result="hardAlpha"/>
<feOffset dx="0.15" dy="-0.15"/>
<feGaussianBlur stdDeviation="0.4"/>
<feComposite in2="hardAlpha" operator="arithmetic" k2="-1" k3="1"/>
<feColorMatrix type="matrix" values="0 0 0 0 0.623529 0 0 0 0 0.321569 0 0 0 0 0.47451 0 0 0 1 0"/>
<feBlend mode="normal" in2="shape" result="effect1_innerShadow_18_19175"/>
</filter>
<filter id="filter4_i_18_19175" x="20.2446" y="17.7195" width="10.2658" height="10.2726" filterUnits="userSpaceOnUse" color-interpolation-filters="sRGB">
<feFlood flood-opacity="0" result="BackgroundImageFix"/>
<feBlend mode="normal" in="SourceGraphic" in2="BackgroundImageFix" result="shape"/>
<feColorMatrix in="SourceAlpha" type="matrix" values="0 0 0 0 0 0 0 0 0 0 0 0 0 0 0 0 0 0 127 0" result="hardAlpha"/>
<feOffset dx="0.15" dy="-0.15"/>
<feGaussianBlur stdDeviation="0.4"/>
<feComposite in2="hardAlpha" operator="arithmetic" k2="-1" k3="1"/>
<feColorMatrix type="matrix" values="0 0 0 0 0.623529 0 0 0 0 0.321569 0 0 0 0 0.47451 0 0 0 1 0"/>
<feBlend mode="normal" in2="shape" result="effect1_innerShadow_18_19175"/>
</filter>
<filter id="filter5_f_18_19175" x="4.73047" y="11.3923" width="16.7812" height="14.8203" filterUnits="userSpaceOnUse" color-interpolation-filters="sRGB">
<feFlood flood-opacity="0" result="BackgroundImageFix"/>
<feBlend mode="normal" in="SourceGraphic" in2="BackgroundImageFix" result="shape"/>
<feGaussianBlur stdDeviation="0.875" result="effect1_foregroundBlur_18_19175"/>
</filter>
<linearGradient id="paint0_linear_18_19175" x1="-0.644532" y1="6.4314" x2="22.8555" y2="28.5564" gradientUnits="userSpaceOnUse">
<stop stop-color="#E12D3E"/>
<stop offset="1" stop-color="#E821A1"/>
</linearGradient>
<radialGradient id="paint1_radial_18_19175" cx="0" cy="0" r="1" gradientUnits="userSpaceOnUse" gradientTransform="translate(21.9805 9.6814) rotate(92.8535) scale(20.0874 36.3763)">
<stop offset="0.792433" stop-color="#D43EB0" stop-opacity="0"/>
<stop offset="1" stop-color="#D43EB0"/>
</radialGradient>
<radialGradient id="paint2_radial_18_19175" cx="0" cy="0" r="1" gradientUnits="userSpaceOnUse" gradientTransform="translate(10.3621 8.72176) rotate(131.057) scale(3.4119 5.68442)">
<stop offset="0.200051" stop-color="#F52958"/>
<stop offset="1" stop-color="#DB2148"/>
</radialGradient>
<radialGradient id="paint3_radial_18_19175" cx="0" cy="0" r="1" gradientUnits="userSpaceOnUse" gradientTransform="translate(26.1965 24.0571) rotate(132.154) scale(4.60709 7.09579)">
<stop offset="0.292708" stop-color="#FB29AB"/>
<stop offset="1" stop-color="#FB29AB" stop-opacity="0"/>
</radialGradient>
<radialGradient id="paint4_radial_18_19175" cx="0" cy="0" r="1" gradientUnits="userSpaceOnUse" gradientTransform="translate(24.5613 22.1996) rotate(111.493) scale(6.36167 8.74951)">
<stop offset="0.580924" stop-color="#D82BA8" stop-opacity="0"/>
<stop offset="0.944551" stop-color="#D531AA"/>
</radialGradient>
<radialGradient id="paint5_radial_18_19175" cx="0" cy="0" r="1" gradientUnits="userSpaceOnUse" gradientTransform="translate(20.7856 19.4133) rotate(114.776) scale(4.25662 2.76717)">
<stop stop-color="#CE4B6E"/>
<stop offset="1" stop-color="#CE4B6E" stop-opacity="0"/>
</radialGradient>
<radialGradient id="paint6_radial_18_19175" cx="0" cy="0" r="1" gradientUnits="userSpaceOnUse" gradientTransform="translate(10.1906 4.98107) rotate(132.416) scale(3.86518 7.61725)">
<stop stop-color="#C8439B"/>
<stop offset="1" stop-color="#B73098"/>
</radialGradient>
<radialGradient id="paint7_radial_18_19175" cx="0" cy="0" r="1" gradientUnits="userSpaceOnUse" gradientTransform="translate(10.6054 6.53128) rotate(137.661) scale(1.52198 6.58497)">
<stop offset="0.144" stop-color="#DD6CB6"/>
<stop offset="1" stop-color="#DB69B6" stop-opacity="0"/>
</radialGradient>
<radialGradient id="paint8_radial_18_19175" cx="0" cy="0" r="1" gradientUnits="userSpaceOnUse" gradientTransform="translate(10.8242 4.80637) rotate(-171.232) scale(6.97045 11.6995)">
<stop offset="0.577636" stop-color="#A35479" stop-opacity="0"/>
<stop offset="0.962193" stop-color="#A35479"/>
</radialGradient>
<radialGradient id="paint9_radial_18_19175" cx="0" cy="0" r="1" gradientUnits="userSpaceOnUse" gradientTransform="translate(26.5429 21.3689) rotate(132.397) scale(3.8931 7.67182)">
<stop stop-color="#BD3995"/>
<stop offset="1" stop-color="#AC3BA4"/>
</radialGradient>
<radialGradient id="paint10_radial_18_19175" cx="0" cy="0" r="1" gradientUnits="userSpaceOnUse" gradientTransform="translate(26.4179 22.9308) rotate(137.226) scale(1.51947 5.12615)">
<stop stop-color="#DB69B6"/>
<stop offset="1" stop-color="#DB69B6" stop-opacity="0"/>
</radialGradient>
<linearGradient id="paint11_linear_18_19175" x1="7.54297" y1="13.0486" x2="15.168" y2="22.2048" gradientUnits="userSpaceOnUse">
<stop stop-color="#FF6670"/>
<stop offset="1" stop-color="#FF5693"/>
</linearGradient>
</defs>
</svg>

<svg width="32" height="32" fill="none" xmlns="http://www.w3.org/2000/svg"><g filter="url(#a)"><path d="M2.55 6.642c0-1.78.884-3.406 1.587-3.96l8.734 8.562c-.375.5-1.195 1.031-2.172 1.484-.539.328-1.086.961-.672 2.024 2.375 4.101 6.391 6.93 7.422 7.148.743.158 1.383-.14 1.813-1.203.476-.953 1.031-1.625 1.36-1.922l8.827 8.758c-.52.688-1.937 1.922-4.562 1.773-5.203-.109-11.516-1.89-16.594-7.406C2.918 15.838 2.551 8.892 2.551 6.642Z" fill="url(#b)"/><path d="M2.55 6.642c0-1.78.884-3.406 1.587-3.96l8.734 8.562c-.375.5-1.195 1.031-2.172 1.484-.539.328-1.086.961-.672 2.024 2.375 4.101 6.391 6.93 7.422 7.148.743.158 1.383-.14 1.813-1.203.476-.953 1.031-1.625 1.36-1.922l8.827 8.758c-.52.688-1.937 1.922-4.562 1.773-5.203-.109-11.516-1.89-16.594-7.406C2.918 15.838 2.551 8.892 2.551 6.642Z" fill="url(#c)"/></g><g filter="url(#d)"><path d="M4.477 3.186c.027-.024.054-.046.08-.067l7.986 7.826a5.76 5.76 0 0 1-8.066-7.759Z" fill="url(#e)"/></g><g filter="url(#f)"><path d="M20.809 19.713c.133-.161.255-.288.354-.379L29.2 27.39a2.964 2.964 0 0 1-.082.105 5.936 5.936 0 0 1-3.71 1.296c-3.307 0-5.989-2.703-5.989-6.036 0-1.254.742-2.078 1.39-3.042Z" fill="url(#g)"/><path d="M20.809 19.713c.133-.161.255-.288.354-.379L29.2 27.39a2.964 2.964 0 0 1-.082.105 5.936 5.936 0 0 1-3.71 1.296c-3.307 0-5.989-2.703-5.989-6.036 0-1.254.742-2.078 1.39-3.042Z" fill="url(#h)"/><path d="M20.809 19.713c.133-.161.255-.288.354-.379L29.2 27.39a2.964 2.964 0 0 1-.082.105 5.936 5.936 0 0 1-3.71 1.296c-3.307 0-5.989-2.703-5.989-6.036 0-1.254.742-2.078 1.39-3.042Z" fill="url(#i)"/></g><g filter="url(#j)"><path d="M4.532 2.02a1.75 1.75 0 0 1 2.475 0l6.463 6.463a1.75 1.75 0 0 1 0 2.475l-.48.48a.4.4 0 0 1-.566 0L4.052 3.066a.4.4 0 0 1 0-.566l.48-.48Z" fill="url(#k)"/><path d="M4.532 2.02a1.75 1.75 0 0 1 2.475 0l6.463 6.463a1.75 1.75 0 0 1 0 2.475l-.48.48a.4.4 0 0 1-.566 0L4.052 3.066a.4.4 0 0 1 0-.566l.48-.48Z" fill="url(#l)"/><path d="M4.532 2.02a1.75 1.75 0 0 1 2.475 0l6.463 6.463a1.75 1.75 0 0 1 0 2.475l-.48.48a.4.4 0 0 1-.566 0L4.052 3.066a.4.4 0 0 1 0-.566l.48-.48Z" fill="url(#m)"/></g><g filter="url(#n)"><path d="M20.841 18.369c.684-.683 1.715-.648 2.475 0 .954.812 5.922 5.781 6.552 6.551.63.77.683 1.792 0 2.475l-.48.48a.4.4 0 0 1-.566 0l-8.46-8.46a.4.4 0 0 1 0-.566l.48-.48Z" fill="url(#o)"/><path d="M20.841 18.369c.684-.683 1.715-.648 2.475 0 .954.812 5.922 5.781 6.552 6.551.63.77.683 1.792 0 2.475l-.48.48a.4.4 0 0 1-.566 0l-8.46-8.46a.4.4 0 0 1 0-.566l.48-.48Z" fill="url(#p)"/></g><g filter="url(#q)"><path d="M10.73 20.33c-3.188-3.004-3.864-5.854-4.25-7.188h2.094c-.02.417.738 3.082 2.656 5.094 4.032 4.227 7.157 5.737 8.532 6.227-1.5-.125-4.313.312-9.032-4.133Z" fill="url(#r)"/></g><defs><radialGradient id="c" cx="0" cy="0" r="1" gradientUnits="userSpaceOnUse" gradientTransform="matrix(-1 20.0625 -36.3312 -1.8109 21.98 9.681)"><stop offset=".792" stop-color="#D43EB0" stop-opacity="0"/><stop offset="1" stop-color="#D43EB0"/></radialGradient><radialGradient id="e" cx="0" cy="0" r="1" gradientUnits="userSpaceOnUse" gradientTransform="matrix(-2.24097 2.57277 -4.28637 -3.73358 10.362 8.722)"><stop offset=".2" stop-color="#F52958"/><stop offset="1" stop-color="#DB2148"/></radialGradient><radialGradient id="g" cx="0" cy="0" r="1" gradientUnits="userSpaceOnUse" gradientTransform="matrix(-3.09194 3.41544 -5.26042 -4.76217 26.197 24.057)"><stop offset=".293" stop-color="#FB29AB"/><stop offset="1" stop-color="#FB29AB" stop-opacity="0"/></radialGradient><radialGradient id="h" cx="0" cy="0" r="1" gradientUnits="userSpaceOnUse" gradientTransform="matrix(-2.33084 5.9193 -8.14109 -3.20571 24.561 22.2)"><stop offset=".581" stop-color="#D82BA8" stop-opacity="0"/><stop offset=".945" stop-color="#D531AA"/></radialGradient><radialGradient id="i" cx="0" cy="0" r="1" gradientUnits="userSpaceOnUse" gradientTransform="rotate(114.776 4.182 16.356) scale(4.25662 2.76717)"><stop stop-color="#CE4B6E"/><stop offset="1" stop-color="#CE4B6E" stop-opacity="0"/></radialGradient><radialGradient id="k" cx="0" cy="0" r="1" gradientUnits="userSpaceOnUse" gradientTransform="matrix(-2.6071 2.85353 -5.62356 -5.1379 10.19 4.981)"><stop stop-color="#C8439B"/><stop offset="1" stop-color="#B73098"/></radialGradient><radialGradient id="l" cx="0" cy="0" r="1" gradientUnits="userSpaceOnUse" gradientTransform="rotate(137.661 4.038 5.32) scale(1.52198 6.58497)"><stop offset=".144" stop-color="#DD6CB6"/><stop offset="1" stop-color="#DB69B6" stop-opacity="0"/></radialGradient><radialGradient id="m" cx="0" cy="0" r="1" gradientUnits="userSpaceOnUse" gradientTransform="matrix(-6.889 -1.06253 1.7834 -11.56278 10.824 4.806)"><stop offset=".578" stop-color="#A35479" stop-opacity="0"/><stop offset=".962" stop-color="#A35479"/></radialGradient><radialGradient id="o" cx="0" cy="0" r="1" gradientUnits="userSpaceOnUse" gradientTransform="rotate(132.397 8.559 16.538) scale(3.8931 7.67182)"><stop stop-color="#BD3995"/><stop offset="1" stop-color="#AC3BA4"/></radialGradient><radialGradient id="p" cx="0" cy="0" r="1" gradientUnits="userSpaceOnUse" gradientTransform="rotate(137.226 8.719 16.638) scale(1.51947 5.12615)"><stop stop-color="#DB69B6"/><stop offset="1" stop-color="#DB69B6" stop-opacity="0"/></radialGradient><filter id="a" x="2.551" y="2.681" width="27.898" height="26.637" filterUnits="userSpaceOnUse" color-interpolation-filters="sRGB"><feFlood flood-opacity="0" result="BackgroundImageFix"/><feBlend in="SourceGraphic" in2="BackgroundImageFix" result="shape"/><feColorMatrix in="SourceAlpha" values="0 0 0 0 0 0 0 0 0 0 0 0 0 0 0 0 0 0 127 0" result="hardAlpha"/><feOffset dx="1"/><feGaussianBlur stdDeviation="1"/><feComposite in2="hardAlpha" operator="arithmetic" k2="-1" k3="1"/><feColorMatrix values="0 0 0 0 0.827451 0 0 0 0 0.317647 0 0 0 0 0.313726 0 0 0 1 0"/><feBlend in2="shape" result="effect1_innerShadow_18_19175"/></filter><filter id="d" x="2.699" y="2.119" width="10.844" height="10.719" filterUnits="userSpaceOnUse" color-interpolation-filters="sRGB"><feFlood flood-opacity="0" result="BackgroundImageFix"/><feBlend in="SourceGraphic" in2="BackgroundImageFix" result="shape"/><feGaussianBlur stdDeviation=".5" result="effect1_foregroundBlur_18_19175"/></filter><filter id="f" x="18.418" y="18.334" width="11.781" height="11.457" filterUnits="userSpaceOnUse" color-interpolation-filters="sRGB"><feFlood flood-opacity="0" result="BackgroundImageFix"/><feBlend in="SourceGraphic" in2="BackgroundImageFix" result="shape"/><feGaussianBlur stdDeviation=".5" result="effect1_foregroundBlur_18_19175"/></filter><filter id="j" x="3.935" y="1.358" width="10.197" height="10.197" filterUnits="userSpaceOnUse" color-interpolation-filters="sRGB"><feFlood flood-opacity="0" result="BackgroundImageFix"/><feBlend in="SourceGraphic" in2="BackgroundImageFix" result="shape"/><feColorMatrix in="SourceAlpha" values="0 0 0 0 0 0 0 0 0 0 0 0 0 0 0 0 0 0 127 0" result="hardAlpha"/><feOffset dx=".15" dy="-.15"/><feGaussianBlur stdDeviation=".4"/><feComposite in2="hardAlpha" operator="arithmetic" k2="-1" k3="1"/><feColorMatrix values="0 0 0 0 0.623529 0 0 0 0 0.321569 0 0 0 0 0.47451 0 0 0 1 0"/><feBlend in2="shape" result="effect1_innerShadow_18_19175"/></filter><filter id="n" x="20.245" y="17.72" width="10.266" height="10.273" filterUnits="userSpaceOnUse" color-interpolation-filters="sRGB"><feFlood flood-opacity="0" result="BackgroundImageFix"/><feBlend in="SourceGraphic" in2="BackgroundImageFix" result="shape"/><feColorMatrix in="SourceAlpha" values="0 0 0 0 0 0 0 0 0 0 0 0 0 0 0 0 0 0 127 0" result="hardAlpha"/><feOffset dx=".15" dy="-.15"/><feGaussianBlur stdDeviation=".4"/><feComposite in2="hardAlpha" operator="arithmetic" k2="-1" k3="1"/><feColorMatrix values="0 0 0 0 0.623529 0 0 0 0 0.321569 0 0 0 0 0.47451 0 0 0 1 0"/><feBlend in2="shape" result="effect1_innerShadow_18_19175"/></filter><filter id="q" x="4.73" y="11.392" width="16.781" height="14.82" filterUnits="userSpaceOnUse" color-interpolation-filters="sRGB"><feFlood flood-opacity="0" result="BackgroundImageFix"/><feBlend in="SourceGraphic" in2="BackgroundImageFix" result="shape"/><feGaussianBlur stdDeviation=".875" result="effect1_foregroundBlur_18_19175"/></filter><linearGradient id="b" x1="-.645" y1="6.431" x2="22.855" y2="28.556" gradientUnits="userSpaceOnUse"><stop stop-color="#E12D3E"/><stop offset="1" stop-color="#E821A1"/></linearGradient><linearGradient id="r" x1="7.543" y1="13.049" x2="15.168" y2="22.205" gradientUnits="userSpaceOnUse"><stop stop-color="#FF6670"/><stop offset="1" stop-color="#FF5693"/></linearGradient></defs></svg>
